Dragonballz:d=16,o=5,b=140:4f6,48f.6,4g#6,4c7,48f.7,4g#6,4c7,48f.7,2p,2f6,2f,2f6,48f.,48f.,48f.,48f.,48f.,48f.,32p,48d#.6,48d#.,48d#.6,48d#.,48d#.,48d#.,48d#.,48d#.,48d#.,32€,48f.6,48f.,48f.6,48f.,48f.,48f.,48f.,48f.,48f.,6p,8f,8f7,8f6,8f,8f7,48f.6,48f.6,48f.6,48f.6,48f.6,48f.6,48f.6,p,a#,a#,p,c6,c,c6