Suite:d=16,o=5,b=76:16g6,e6,8g6,8p,f#6,p,d#6,p,e6.,p.,d6,d6,d6,8p,c#6,c#6,c#6,8p,c6,c6,c6,8p,b,e6,c6,e6,b,4p,g,e,8g,p,f#,p,c6,p,8b,8p,g6,g6,g6,8p,f#6,f#6,f#6,8p,e6,e6,e6,8p,d#6,f#6,e6,f#6,d#6,4p.,g6,e6,g6.,32p,f#6,p,d#6,p,e6,p,d6,d6,d6,p,c#6,c#6,c#6,p,c6,c6,c6,p,b,e6,c6,e6,b,2p,