Pat:d=16,o=5,b=100:f#,p,a,p,8b,8p,f#,p,a,p,8b,8p,f#,p,a,p,b,p,d6,d6,c#6,c#6,a,p,4b.,8p,48f#.,g,r,a,p,b,p,g,p,8f#.,8e,8p,48f#.,g,p,a,p,32b.,32b.,g,p,8f#.,8e,8p,48f#.,g,p,a,p,b,p,g,p,f#,p,e,p,d,p,c#,p,2d