(Give it time!) Zorba (Give it time!):d=16,o=5,b=125:16c#6,2d6,2p,c#6,2d6,2p,32e6,32d6,32c#6,2d6,2p,c#6,2d6,2p,b,2c6,2p,32d6,32c6,32b,2c6,2p,a#,2b,4p,8p,32c6,32b,32a,32g,32b,2a,2p,32a,32g,32f#,32a,1g,1p,8c#6,8d6,8d6,8d6,8d6,8d6,8d6,8d6,8c#6,8d6,8d6,8d6,8d6,8d6,e6,d6,c#6,e6,8c#6,8d6,8d6,8d6,8d6,8d6,8d6,8d6,8c#6,8d6,8d6,8d6,8d6,8d6,e6,d6,c#6,e6,8b,8c6,8c6,8c6,8c6,8c6,8c6,8c6,8b,8c6,8c6,8c6,8c6,8c6,d6,c6,b5,d6,8b,8c6,8c6,8c6,8c6,8c6,8c6,8c6,8b,8c6,8c6,8c6,8c6,8c6,8c6,8c6,c#6.,d6.,d6.,d6.,d6.,d6.,d6.,d6.,c#6.,d6.,d6.,d6.,d6.,d6.,32e6.,32d6.,32c#6.,32e6.,c#6.,d6.,d6.,d6.,d6.,d6.,d6.,d6.,c#6.,d6.,d6.,d6.,d6.,d6.,32e6.,32d6.,32c#6.,32e6.,b.,c6.,c6.,c6.,c6.,c6.,c6.,c6.,b.,c6.,c6.,c6.,c6.,c6.,32d6.,32c6.,32b5.,32d6.,b.,c6.,c6.,c6.,c6.,c6.,c6.,c6.,b.,c6.,c6.,c6.,c6.,c6.,c6.,c6., Invalid note: 
